Sources/FrostedUI/Resources/Icons.xcassets/telephone20.imageset/telephone-20.svg

<svg width="20" height="20" viewBox="0 0 20 20" fill="none" xmlns="http://www.w3.org/2000/svg" data-fui-icon="true">
  <path
    d="M12.25 1C13.2165 1 14 1.7835 14 2.75V5.41992C14 6.26205 13.4 6.98445 12.5723 7.13965L10.1338 7.59668C10.0522 8.35046 10 9.15635 10 10C10 10.8433 10.0523 11.6488 10.1338 12.4023L12.5723 12.8604C13.4 13.0155 14 13.738 14 14.5801V17.25C14 18.2165 13.2165 19 12.25 19H9.58398C8.86053 19 8.08679 18.7073 7.61816 18.0146C6.81226 16.8231 5.5 14.2279 5.5 10C5.5 5.77211 6.81226 3.1769 7.61816 1.98535C8.08679 1.29275 8.86053 1 9.58398 1H12.25ZM9.58398 2.5C9.24024 2.5 8.98971 2.63492 8.86035 2.82617C8.20379 3.79696 7 6.10316 7 10C7 13.8968 8.20379 16.203 8.86035 17.1738C8.9897 17.3651 9.24024 17.5 9.58398 17.5H12.25C12.3881 17.5 12.5 17.3881 12.5 17.25V14.5801C12.5 14.4598 12.4141 14.3562 12.2959 14.334L9.31445 13.7754L9.45312 13.0381H9.45215L9.31445 13.7754C8.99565 13.7156 8.75131 13.4573 8.70898 13.1357C8.58265 12.1756 8.5 11.1203 8.5 10C8.5 9.15969 8.54659 8.356 8.62305 7.60156L8.70898 6.86426L8.7334 6.74707C8.81279 6.48131 9.0354 6.27693 9.31445 6.22461L12.2959 5.66602C12.4141 5.64384 12.5 5.54023 12.5 5.41992V2.75C12.5 2.61193 12.3881 2.5 12.25 2.5H9.58398Z"
    fill="currentColor"
  />
</svg>

<svg xmlns="http://www.w3.org/2000/svg" width="20" height="20" fill="none" data-fui-icon="true" viewBox="0 0 20 20"><path fill="currentColor" d="M12.25 1c.966 0 1.75.784 1.75 1.75v2.67c0 .842-.6 1.564-1.428 1.72l-2.438.457C10.052 8.35 10 9.157 10 10s.052 1.649.134 2.402l2.438.458A1.75 1.75 0 0 1 14 14.58v2.67A1.75 1.75 0 0 1 12.25 19H9.584c-.723 0-1.497-.293-1.966-.985C6.812 16.823 5.5 14.228 5.5 10s1.312-6.823 2.118-8.015C8.087 1.293 8.861 1 9.584 1zM9.584 2.5c-.344 0-.594.135-.724.326C8.204 3.797 7 6.103 7 10s1.204 6.203 1.86 7.174c.13.191.38.326.724.326h2.666a.25.25 0 0 0 .25-.25v-2.67a.25.25 0 0 0-.204-.246l-2.982-.559.14-.737h-.002l-.138.737a.75.75 0 0 1-.605-.64A24 24 0 0 1 8.5 10c0-.84.047-1.644.123-2.398l.086-.738.024-.117a.75.75 0 0 1 .581-.522l2.982-.559a.25.25 0 0 0 .204-.246V2.75a.25.25 0 0 0-.25-.25z"/></svg>
